X: 49
T: Mama dada haile xin
L: 1/8
M: 2/4
K: F
ga2a/ g/ [I:setbarnb 1]| 
dc'2a/ a/ | 
g d f f/ c/ | 
f4 | 
ga2a/ g/ | 
dc'2a/ a/ | 
g df2 | 
d Ac2 |]

@@@ Tune index: 8923
